map_marker_monochrome/openmoji_full_octagon.svg

<svg xmlns="http://www.w3.org/2000/svg" width="24" height="24" viewBox="0 0 24 24"> <g transform="scale(0.4137948442403792)">
  
  <g
     id="line-supplement"
     transform="translate(-7.0001852,-7.0001852)">
    <path
       fill="#000"
       d="m 15.7802,16.8308 c 0.1971,-0.4758 0.5748,-0.8535 1.0506,-1.0506 L 35.2572,8.14784 c 0.4758,-0.19712 1.0099,-0.19712 1.4857,0 l 18.4264,7.63236 c 0.4758,0.1971 0.8535,0.5748 1.0506,1.0506 l 7.6323,18.4264 c 0.1972,0.4758 0.1972,1.0099 0,1.4857 l -7.6323,18.4264 c -0.1971,0.4758 -0.5748,0.8535 -1.0506,1.0506 l -18.4264,7.6323 c -0.4758,0.1972 -1.0099,0.1972 -1.4857,0 L 16.8308,56.2199 C 16.355,56.0228 15.9773,55.6451 15.7802,55.1693 L 8.14784,36.7429 c -0.19712,-0.4758 -0.19712,-1.0099 0,-1.4857 z"
       id="path2" />
  </g>
  <g
     id="line"
     transform="translate(-7.0001852,-7.0001852)">
    <path
       fill="none"
       stroke="#000"
       stroke-width="2"
       d="m 15.7802,16.8308 c 0.1971,-0.4758 0.5748,-0.8535 1.0506,-1.0506 L 35.2572,8.14784 c 0.4758,-0.19712 1.0099,-0.19712 1.4857,0 l 18.4264,7.63236 c 0.4758,0.1971 0.8535,0.5748 1.0506,1.0506 l 7.6324,18.4264 c 0.1971,0.4758 0.1971,1.0099 0,1.4857 l -7.6324,18.4264 c -0.1971,0.4758 -0.5748,0.8535 -1.0506,1.0506 l -18.4264,7.6324 c -0.4758,0.1971 -1.0099,0.1971 -1.4857,0 L 16.8308,56.2199 C 16.355,56.0228 15.9773,55.6451 15.7802,55.1693 L 8.14784,36.7429 c -0.19712,-0.4758 -0.19712,-1.0099 0,-1.4857 z"
       id="path5" />
  </g>
</g></svg>

<svg xmlns="http://www.w3.org/2000/svg" width="24" height="24" viewBox="0 0 24 24"> <g transform="scale(0.333333333)">  <g id="line-supplement">
    <path fill="#000" d="M15.7802 16.8308C15.9773 16.355 16.355 15.9773 16.8308 15.7802L35.2572 8.14784C35.733 7.95072 36.2671 7.95072 36.7429 8.14784L55.1693 15.7802C55.6451 15.9773 56.0228 16.355 56.2199 16.8308L63.8522 35.2572C64.0494 35.733 64.0494 36.2671 63.8522 36.7429L56.2199 55.1693C56.0228 55.6451 55.6451 56.0228 55.1693 56.2199L36.7429 63.8522C36.2671 64.0494 35.733 64.0494 35.2572 63.8522L16.8308 56.2199C16.355 56.0228 15.9773 55.6451 15.7802 55.1693L8.14784 36.7429C7.95072 36.2671 7.95072 35.733 8.14784 35.2572L15.7802 16.8308Z"/>
  </g>
  <g id="line">
    <path fill="none" stroke="#000" stroke-width="2" d="M15.7802 16.8308C15.9773 16.355 16.355 15.9773 16.8308 15.7802L35.2572 8.14784C35.733 7.95072 36.2671 7.95072 36.7429 8.14784L55.1693 15.7802C55.6451 15.9773 56.0228 16.355 56.2199 16.8308L63.8523 35.2572C64.0494 35.733 64.0494 36.2671 63.8523 36.7429L56.2199 55.1693C56.0228 55.6451 55.6451 56.0228 55.1693 56.2199L36.7429 63.8523C36.2671 64.0494 35.733 64.0494 35.2572 63.8523L16.8308 56.2199C16.355 56.0228 15.9773 55.6451 15.7802 55.1693L8.14784 36.7429C7.95072 36.2671 7.95072 35.733 8.14784 35.2572L15.7802 16.8308Z"/>
  </g></g></svg>
